svg/check.svg

<svg width="28" height="24" viewBox="0 0 28 24" fill="none" xmlns="http://www.w3.org/2000/svg">
<path d="M27.92 3.78565C27.902 3.70217 27.8643 3.62158 27.7774 3.55318C26.9843 2.92534 25.1095 0.393691 23.8782 0.81341C22.1605 1.39951 12.7174 13.823 10.624 16.561C9.89295 15.5163 3.80413 7.16427 3.49862 7.35152C2.45222 7.99095 1.3722 8.53763 0.372757 9.25938C0.260871 9.34054 0.203478 9.44547 0.186666 9.55272C0.0498518 9.65939 -0.0376862 9.83621 0.0156482 10.0524C0.873637 13.5366 3.7908 16.2804 5.87432 19.0248C7.0842 20.6185 8.77119 24.6301 11.0454 22.7362C11.0843 22.7037 11.1075 22.6666 11.133 22.6289C11.5794 22.4469 11.9614 22.0927 12.3614 21.6614C14.0948 19.7947 15.6206 17.7436 17.2288 15.7656C18.9476 13.6508 20.8543 11.671 22.7425 9.71852C24.3912 8.01356 25.8556 5.75612 27.7988 4.42276C28.0412 4.25522 28.0417 3.97869 27.92 3.78565ZM5.47489 9.9336C4.92995 9.45185 4.3653 8.98343 3.77573 8.53241C4.4111 8.92604 4.97169 9.39967 5.47489 9.9336ZM2.86208 10.3336C2.74556 10.2235 2.61512 10.2009 2.49628 10.2281C2.4215 10.0194 2.35946 9.80954 2.32584 9.60142C2.30381 9.46692 2.23772 9.36779 2.15192 9.30112C2.18671 9.27503 2.21917 9.24895 2.25511 9.22344C2.26149 9.32025 2.29627 9.41707 2.3699 9.50518C3.68645 11.0629 5.16996 12.4531 6.50854 13.9899C6.66216 14.1667 6.81231 14.3453 6.96304 14.5227C5.54098 13.1754 4.28704 11.6733 2.86208 10.3336ZM8.19669 20.7338C8.32944 20.8869 8.46162 21.0405 8.59727 21.1906C8.75438 21.4051 8.91322 21.6196 9.07728 21.8312C9.07786 21.8336 9.07844 21.8365 9.07902 21.8382C8.75728 21.5483 8.46162 21.139 8.19669 20.7338ZM8.62278 17.3372C9.01293 17.6816 9.42106 18.0097 9.85005 18.2729C9.83962 18.3413 9.84484 18.408 9.86165 18.4723C9.86687 18.5007 9.87846 18.5291 9.88948 18.557C9.47961 18.1396 9.05236 17.7378 8.62278 17.3372ZM10.5202 21.8133C10.5191 21.8092 10.5196 21.8051 10.5179 21.8022C10.504 21.7704 10.4877 21.742 10.4738 21.7107C10.8715 21.706 11.3921 21.4109 11.9637 20.9512C11.4588 21.4277 10.9596 21.7634 10.5202 21.8133ZM24.0654 1.92648C23.6944 2.08822 23.3854 2.3375 23.1089 2.63026C23.3825 2.23953 23.6724 1.93923 24.0654 1.92648ZM14.8855 13.9488C14.6641 14.1812 14.2675 14.5331 13.7893 14.9644C14.2119 14.5418 14.6502 14.1401 15.0438 13.7389C16.3279 12.4334 17.3221 10.8322 18.3586 9.3017C19.5343 8.14805 20.7523 7.05006 21.8758 5.83728C22.615 5.03842 23.07 3.75782 23.9344 3.07549C23.3582 3.68303 22.9031 4.56073 22.5147 5.40423C21.8984 6.05352 21.3535 6.78745 20.7819 7.49819C18.9668 9.75794 16.8792 11.8565 14.8855 13.9488ZM22.4781 8.54574C21.5639 9.65359 20.5378 10.6623 19.5621 11.7151C20.2984 10.7922 21.0294 9.86461 21.7007 8.8872C21.7535 8.8101 21.8173 8.70169 21.8874 8.56893C22.1234 8.33299 22.3593 8.09762 22.5906 7.85761C23.2608 7.15963 24.0573 6.39266 24.546 5.49988C24.9362 4.97523 25.3634 4.45464 25.8463 4.14159C25.1466 5.72945 23.4498 7.36949 22.4781 8.54574Z" fill="#E1CFDB"/>
</svg>

<svg width="28" height="24" viewBox="0 0 28 24" fill="none" xmlns="http://www.w3.org/2000/svg"><path d="M27.92 3.786a.383.383 0 0 0-.143-.233c-.793-.628-2.668-3.16-3.899-2.74-1.718.587-11.16 13.01-13.254 15.748-.731-1.045-6.82-9.397-7.125-9.21-1.047.64-2.127 1.187-3.126 1.908a.443.443 0 0 0-.186.294.47.47 0 0 0-.171.5c.858 3.484 3.775 6.227 5.858 8.972 1.21 1.594 2.897 5.605 5.171 3.711.04-.032.063-.07.088-.107.446-.182.828-.536 1.228-.968 1.734-1.866 3.26-3.917 4.868-5.895 1.719-2.115 3.625-4.095 5.514-6.047 1.648-1.705 3.113-3.963 5.056-5.296.242-.168.243-.444.121-.637zM5.475 9.934a31.04 31.04 0 0 0-1.7-1.402 8.442 8.442 0 0 1 1.7 1.402zm-2.613.4a.388.388 0 0 0-.366-.106 3.56 3.56 0 0 1-.17-.627.465.465 0 0 0-.174-.3c.035-.026.067-.052.103-.078a.482.482 0 0 0 .115.282c1.316 1.558 2.8 2.948 4.139 4.485.153.177.303.355.454.533-1.422-1.348-2.676-2.85-4.1-4.19zm5.335 10.4c.132.153.265.306.4.457.157.214.316.429.48.64l.002.007c-.322-.29-.617-.699-.882-1.104zm.426-3.397c.39.345.798.673 1.227.936a.49.49 0 0 0 .012.2c.005.028.016.056.027.084a40 40 0 0 0-1.266-1.22zm1.897 4.476c0-.004 0-.008-.002-.01-.014-.033-.03-.061-.044-.092.397-.005.918-.3 1.49-.76-.505.477-1.004.812-1.444.862zM24.065 1.926c-.37.162-.68.411-.956.704.273-.39.563-.69.956-.704zm-9.18 12.023c-.22.232-.617.584-1.096 1.015.423-.422.861-.824 1.255-1.225 1.284-1.306 2.278-2.907 3.315-4.437 1.175-1.154 2.393-2.252 3.517-3.465.739-.799 1.194-2.08 2.058-2.762-.576.608-1.03 1.486-1.42 2.33-.616.649-1.16 1.382-1.732 2.093-1.815 2.26-3.903 4.359-5.896 6.45zm7.593-5.403c-.914 1.108-1.94 2.116-2.916 3.17.736-.924 1.467-1.851 2.139-2.829.052-.077.116-.185.186-.318.236-.236.472-.471.704-.711.67-.698 1.466-1.465 1.955-2.358.39-.525.817-1.045 1.3-1.358-.7 1.587-2.396 3.227-3.368 4.404z" fill="#E1CFDB"/></svg>
